X:1
T:BRANLE DES PIERRES
C:Michel PLATRE
Z:Creative Commons BY-NC-SA
L:1/8
M:2/4
K:C
V:1 treble nm="Part_1"
V:1
 G |: c3/2 (3d/4c/4B/4 cd | c3 c | d>e fd | e2 cG | c3/2 (3d/4c/4B/4 cd | c3 c |1 d>e fe || %8
 d3 G :|2 d>fed || c4 |: d>e fd | g>f ed | c3/2 (3d/4c/4B/4 cd | e2 c2 | d>e fd | g>f ed |1 %17
 c3/2 (3d/4c/4B/4 cd || B4 :|2 c>GAB || c3 x | %21

